X:4
T:Monroe's Hornpipe
C:Bill Monroe
M:2/4
L:1/8
Q:100
K:A
A,CEF DEFD|EGBc AceA|A,CEF DEFD|EGBe (3cecA2|!
A,CEF DEFD|EGBc AceA|A,CEF DEFD|EGBcA2A2:|!
|:EFABc2cA|cBAc BAFD|EFAB ce2A|cBAGF2F2|!
EFAB c2cA|cBAc BAF2|aefa ecBA|1c2c2A3D:|2c2c2A4|
